X: 21503
T: JOHNNIE PEEP
C: Copyright.--John McKenzie
%R: march, reel
B: W. Hamilton "Universal Tune-Book" Vol. 2 Glasgow 1846 p.150 #3
S: http://s3-eu-west-1.amazonaws.com/itma.dl.printmaterial/book_pdfs/hamiltonvol2web.pdf
Z: 2016 John Chambers <jc:trillian.mit.edu>
M: 2/4
L: 1/8
K: D
% - - - - - - - - - - - - - - - - - - - - - - - - -
[|\
DFAz | GFdz | cBAF | EGFE |\
DFAz | GFdz | cBAF | GEDz |]\
dfaz | dgbz | dfaa | egfe |\
dfaz | dgbz | dgfa | efdz |]
% - - - - - - - - - - - - - - - - - - - - - - - - -

%%sep 1 1 500
%%sep 1 1 500

